X: 48
M: 6/8
L: 1/8
K: D
V: 1
d2d g2f | e2a dcd | Bgf edc | d2A, A,B,C |\
d (f/g/a).a |\
(g/a/b).b (e/f/g).g | (f/g/a).a def | Bgf edc | d2D (F/G/A).A |\
(G/A/B).B (E/F/G).G | (F/G/A).A (D/E/F).F | B,GF EDC | D2 |]
f fff & A AAA |\
ggg eee & AAA AAA | fff eee & AAA FFF | egf edc & B2x x3 | d2f A/f/A/f/A/f/ |\
V: 2 clef=bass middle=d
z d'3 | b3 g3 | a3 f3 | g3 a3 | d3 d3 |
d3 f3 | g3 a3 | d3 d'3 | g3 a3 | d3 f3 |
g3 a3 | d2 |] z d'3 | c'3 c'3 | d'3 d3 | g3 a3 |
d3 d'3 | c'3 c'3 | d'3 d3 | g3 a3 | d2 |]


